assets/icons/logo.svg

<svg width="42" height="48" xmlns="http://www.w3.org/2000/svg">

 <g>
  <title>background</title>
  <rect fill="none" id="canvas_background" height="602" width="802" y="-1" x="-1"/>
 </g>
 <g>
  <title>Layer 1</title>
  <path id="svg_1" fill="black" d="m0,0l3.75,43.2021l16.7968,4.7979l16.8461,-4.8054l3.75,-43.1946l-41.1429,0zm31.1443,35.8821l-10.5654,3.0108l-10.5493,-3.0258l-0.72317,-8.3314l5.17067,0l0.3675,4.2386l5.7418,1.6243l0.014,0.03l5.7289,-1.5911l0.6043,-6.8732l-12.0407,0l-0.4286,-5.3572l12.9268,0l0.466,-5.4642l-19.71424,0l-0.42857,-5.25004l25.77641,0l-2.3464,26.98924z"/>
 </g>
</svg>

<svg width="42" height="48" viewBox="0 0 42 48" fill="none" xmlns="http://www.w3.org/2000/svg">
<path d="M0 0L3.75 43.2021L20.5468 48L37.3929 43.1946L41.1429 0H0ZM31.1443 35.8821L20.5789 38.8929L10.0296 35.8671L9.30643 27.5357H14.4771L14.8446 31.7743L20.5864 33.3986L20.6004 33.4286L26.3293 31.8375L26.9336 24.9643H14.8929L14.4643 19.6071H27.3911L27.8571 14.1429H8.14286L7.71429 8.89286H33.4907L31.1443 35.8821Z" fill="black"/>
</svg>
